!!!OTL: EI DU FEIN LIEBER SCHIFFSMANN MEIN
!!!ARE: Europa, Mitteleuropa, Deutschland
!!!SCT: E0136A
!!!YEM: Copyright 1995, estate of Helmut Schaffrath.
**kern
*ICvox
*Ivox
*M2/4
*k[f#c#g#d#]
*E:
=1
{4b
8b
8a
=2
8g#
8b
8ee
8g#
=3
4b
4a
=4
4g#
8e
8r}
=5
{4b
8b
8a
=6
8g#
8b
8ee
8g#
=7
4b
4a
=8
4g#
8e
8r}
=9
{4e
8g#
8b
=10
4e
8g#
8b
=11
8cc#
8a
8ee
8cc#
=12
4b
4r}
=13
{4dd#
4dd#
=14
4ee
8g#
8a
=15
2b
=16
4g#
4r}
=17
{4e
8g#
8b
=18
4e
8g#
8b
=19
4a
8cc#
8ee
=20
2b}
=21
{4dd#
4dd#
=22
4ee
8g#
8a
=23
4b
8gg#
8ff#
=24
4ee
4r}
=25
{4e
8g#
8b
=26
4e
8g#
8b
=27
4a
8cc#
8ee
=28
2b}
=29
{4dd#
4dd#
=30
4ee
8g#
8a
=31
4b
8gg#
8ff#
=32
4ee
4r}
==
!!!AGN: erzaehlendes Volks - Lied, Schalk -, Schelmen - Lied, Liebe     Ballade ?
!!!ONB: ESAC (Essen Associative Code) Database: ERK1
!!!AMT: simple duple
!!!AIN: vox
!!!EED: Helmut Schaffrath
!!!EEV: 1.0
*-
!!!title: @{OTL} [@{SCT}]
